img/link.svg

<svg xmlns="http://www.w3.org/2000/svg" width="15" height="14"><path d="M12.967 6.202l-2.571 2.57a3.634 3.634 0 01-5.139 0 3.67 3.67 0 01-.552-.733L5.9 6.844c.056-.056.127-.089.194-.128.082.282.226.55.448.771a1.82 1.82 0 002.57 0l2.569-2.569a1.819 1.819 0 000-2.57 1.82 1.82 0 00-2.569 0l-.914.915A4.557 4.557 0 005.88 3.01l1.947-1.947a3.635 3.635 0 015.14 5.139zm-6.795 4.226l-.915.914a1.82 1.82 0 01-2.57 0 1.82 1.82 0 010-2.57l2.57-2.57a1.82 1.82 0 012.57 0c.221.222.365.489.449.77.067-.038.136-.071.193-.128l1.194-1.193a3.563 3.563 0 00-.551-.733 3.633 3.633 0 00-5.14 0L1.403 7.487a3.635 3.635 0 005.139 5.14L8.49 10.68a4.563 4.563 0 01-2.318-.252z"/></svg>

<svg
		xmlns="http://www.w3.org/2000/svg"
		xmlns:xlink="http://www.w3.org/1999/xlink"
		width="15px" height="14px">
	<g>
		<path d="M12.967,6.202 L10.396,8.772 C8.978,10.191 6.676,10.191 5.257,8.772 C5.034,8.549 4.859,8.298 4.705,8.039 L5.900,6.844 C5.956,6.788 6.027,6.755 6.094,6.716 C6.176,6.998 6.320,7.266 6.542,7.487 C7.251,8.196 8.404,8.195 9.112,7.487 L11.681,4.918 C12.390,4.209 12.390,3.056 11.681,2.348 C10.973,1.640 9.820,1.640 9.112,2.348 L8.198,3.263 C7.456,2.974 6.657,2.896 5.880,3.010 L7.827,1.063 C9.246,-0.356 11.547,-0.356 12.967,1.063 C14.385,2.482 14.385,4.783 12.967,6.202 ZM6.172,10.428 L5.257,11.342 C4.549,12.050 3.396,12.050 2.687,11.342 C1.979,10.633 1.979,9.481 2.687,8.772 L5.257,6.202 C5.966,5.494 7.118,5.494 7.827,6.202 C8.048,6.424 8.192,6.691 8.276,6.972 C8.343,6.934 8.412,6.901 8.469,6.844 L9.663,5.651 C9.511,5.391 9.335,5.141 9.112,4.918 C7.693,3.498 5.391,3.498 3.972,4.918 L1.403,7.487 C-0.016,8.907 -0.016,11.207 1.403,12.627 C2.822,14.046 5.123,14.046 6.542,12.627 L8.490,10.680 C7.711,10.794 6.912,10.716 6.172,10.428 Z"/>
	</g>
</svg>
